src/assets/duotone/Forward.svg

<svg width="24" height="24" viewBox="0 0 24 24"  xmlns="http://www.w3.org/2000/svg">
<path opacity="0.4" d="M2 8.34007V15.6601C2 17.1601 3.62999 18.1001 4.92999 17.3501L8.10001 15.5201L11.27 13.6901L11.76 13.4101V10.5901L11.27 10.3101L8.10001 8.48009L4.92999 6.65007C3.62999 5.90007 2 6.84007 2 8.34007Z" />
<path d="M11.7598 8.34007V15.6601C11.7598 17.1601 13.3897 18.1001 14.6797 17.3501L17.8597 15.5201L21.0298 13.6901C22.3198 12.9401 22.3198 11.0601 21.0298 10.3101L17.8597 8.48009L14.6797 6.65007C13.3897 5.90007 11.7598 6.84007 11.7598 8.34007Z" />
</svg>

<?xml version="1.0" encoding="UTF-8"?>
<svg width="24" height="24" viewBox="0 0 24 24" xmlns="http://www.w3.org/2000/svg">
 <path d="m2 8.3401v7.32c0 1.5 1.63 2.44 2.93 1.69l6.34-3.66 0.49-0.28v-2.82l-0.49-0.28-6.34-3.66c-1.3-0.75-2.93 0.19-2.93 1.69z" opacity=".4"/>
 <path d="m11.76 8.3401v7.32c0 1.5 1.6299 2.44 2.9199 1.69l3.18-1.83 3.1701-1.83c1.29-0.75 1.29-2.63 0-3.38l-3.1701-1.83-3.18-1.83c-1.29-0.75-2.9199 0.19-2.9199 1.69z"/>
</svg>
